Sweet-Rainbow/icons/com.github.fabiocolacio.marker.svg

<?xml version="1.0" encoding="UTF-8" standalone="no"?>
<!-- Generator: Gravit.io -->

<svg
   xmlns:dc="http://purl.org/dc/elements/1.1/"
   xmlns:cc="http://creativecommons.org/ns#"
   xmlns:rdf="http://www.w3.org/1999/02/22-rdf-syntax-ns#"
   xmlns:svg="http://www.w3.org/2000/svg"
   xmlns="http://www.w3.org/2000/svg"
   xmlns:sodipodi="http://sodipodi.sourceforge.net/DTD/sodipodi-0.dtd"
   xmlns:inkscape="http://www.inkscape.org/namespaces/inkscape"
   style="isolation:isolate"
   viewBox="0 0 36 36"
   width="48"
   height="48"
   version="1.1"
   id="svg11"
   sodipodi:docname="com.github.fabiocolacio.marker.svg"
   inkscape:version="0.92.4 (5da689c313, 2019-01-14)">
  <metadata
     id="metadata17">
    <rdf:RDF>
      <cc:Work
         rdf:about="">
        <dc:format>image/svg+xml</dc:format>
        <dc:type
           rdf:resource="http://purl.org/dc/dcmitype/StillImage" />
        <dc:title></dc:title>
      </cc:Work>
    </rdf:RDF>
  </metadata>
  <defs
     id="defs15" />
  <sodipodi:namedview
     pagecolor="#ffffff"
     bordercolor="#666666"
     borderopacity="1"
     objecttolerance="10"
     gridtolerance="10"
     guidetolerance="10"
     inkscape:pageopacity="0"
     inkscape:pageshadow="2"
     inkscape:window-width="640"
     inkscape:window-height="480"
     id="namedview13"
     showgrid="false"
     inkscape:zoom="29.365243"
     inkscape:cx="25.325443"
     inkscape:cy="32"
     inkscape:current-layer="svg11"
     units="px" />
  <linearGradient
     id="_lgradient_0"
     x1="0.58405644"
     y1="0.069444448"
     x2="1.0054971"
     y2="1.0122981"
     gradientTransform="matrix(34.885,0,0,45,7,2)"
     gradientUnits="userSpaceOnUse">
    <stop
       offset="0%"
       stop-opacity="1"
       style="stop-color:rgb(34,216,143)"
       id="stop2" />
    <stop
       offset="51.73913043478261%"
       stop-opacity="1"
       style="stop-color:rgb(147,135,218)"
       id="stop4" />
    <stop
       offset="98.69565217391305%"
       stop-opacity="1"
       style="stop-color:rgb(255,89,230)"
       id="stop6" />
  </linearGradient>
  <g
     id="g825"
     transform="matrix(0.8000049,0,0,0.8000049,-1.5541105,-1.6002303)">
    <path
       id="path9"
       d="m 15.612,26.656 -1.157,1.933 c 0.56,0.719 1.058,1.484 1.487,2.287 0.618,1.186 1.033,2.46 1.22,3.784 0.056,0.452 0.098,0.909 0.095,1.361 0.372,-0.173 0.747,-0.333 1.126,-0.48 1.205,-0.456 2.467,-0.715 3.755,-0.783 0.833,-0.049 1.684,-0.03 2.516,0.06 l 1.145,-2.065 z m 2.053,-3.433 1.185,-1.98 v 0 c 0.566,-0.947 0.257,-2.176 -0.69,-2.743 v 0 c -0.947,-0.567 -2.176,-0.258 -2.743,0.689 v 0 l -5.134,8.582 c -0.226,0.378 -0.321,0.81 -0.269,1.249 0.043,0.434 0.232,0.838 0.531,1.157 0.732,0.764 1.352,1.636 1.856,2.566 0.404,0.766 0.672,1.603 0.8,2.46 0.108,0.834 0.066,1.683 -0.113,2.508 -0.23,0.969 -0.598,1.915 -1.094,2.783 q -0.253,0.443 -0.212,1.446 l 1.341,0.348 1.429,0.319 0.75,0.11 q 1.361,-1.516 2.166,-2.141 c 0.71,-0.543 1.491,-0.973 2.323,-1.291 0.821,-0.301 1.686,-0.482 2.57,-0.537 0.991,-0.059 1.989,0.025 2.965,0.225 0.853,0.172 1.73,-0.224 2.156,-0.994 L 41.503,12.653 c 0.802,-1.449 0.3,-3.315 -1.121,-4.165 L 31.002,2.877 30.282,2.446 C 28.861,1.596 26.924,1.998 25.959,3.343 l -6.339,8.84 v 0 c -0.647,0.899 -0.392,2.141 0.569,2.77 v 0 c 0.961,0.63 2.158,0.435 2.672,-0.435 v 0 l 5.951,-8.291 0.137,0.083 8.642,5.169 -9.852,17.773 z M 9,43 h 30 c 1.104,0 2,0.896 2,2 v 0 c 0,1.104 -0.896,2 -2,2 H 9 C 7.896,47 7,46.104 7,45 v 0 c 0,-1.104 0.896,-2 2,-2 z"
       style="fill:url(#_lgradient_0);fill-rule:evenodd"
       inkscape:connector-curvature="0" />
  </g>
</svg>

<?xml version="1.0" encoding="UTF-8" standalone="no"?><!-- Generator: Gravit.io --><svg xmlns="http://www.w3.org/2000/svg" xmlns:xlink="http://www.w3.org/1999/xlink" style="isolation:isolate" viewBox="0 0 48 48" width="48pt" height="48pt"><linearGradient id="_lgradient_0" x1="0.5840564266095207" y1="0.0694444444444674" x2="1.0054970516307113" y2="1.0122980910425845" gradientTransform="matrix(34.885,0,0,45,7,2)" gradientUnits="userSpaceOnUse"><stop offset="0%" stop-opacity="1" style="stop-color:rgb(34,216,143)"/><stop offset="51.73913043478261%" stop-opacity="1" style="stop-color:rgb(147,135,218)"/><stop offset="98.69565217391305%" stop-opacity="1" style="stop-color:rgb(255,89,230)"/></linearGradient><path d=" M 15.612 26.656 L 14.455 28.589 C 15.015 29.308 15.513 30.073 15.942 30.876 C 16.56 32.062 16.975 33.336 17.162 34.66 C 17.218 35.112 17.26 35.569 17.257 36.021 C 17.629 35.848 18.004 35.688 18.383 35.541 C 19.588 35.085 20.85 34.826 22.138 34.758 C 22.971 34.709 23.822 34.728 24.654 34.818 L 25.799 32.753 L 15.612 26.656 L 15.612 26.656 Z  M 17.665 23.223 L 18.85 21.243 L 18.85 21.243 C 19.416 20.296 19.107 19.067 18.16 18.5 L 18.16 18.5 C 17.213 17.933 15.984 18.242 15.417 19.189 L 15.417 19.189 L 10.283 27.771 C 10.057 28.149 9.962 28.581 10.014 29.02 C 10.057 29.454 10.246 29.858 10.545 30.177 C 11.277 30.941 11.897 31.813 12.401 32.743 C 12.805 33.509 13.073 34.346 13.201 35.203 C 13.309 36.037 13.267 36.886 13.088 37.711 C 12.858 38.68 12.49 39.626 11.994 40.494 Q 11.741 40.937 11.782 41.94 L 13.123 42.288 L 14.552 42.607 L 15.302 42.717 Q 16.663 41.201 17.468 40.576 C 18.178 40.033 18.959 39.603 19.791 39.285 C 20.612 38.984 21.477 38.803 22.361 38.748 C 23.352 38.689 24.35 38.773 25.326 38.973 C 26.179 39.145 27.056 38.749 27.482 37.979 L 41.503 12.653 C 42.305 11.204 41.803 9.338 40.382 8.488 L 31.002 2.877 L 30.282 2.446 C 28.861 1.596 26.924 1.998 25.959 3.343 L 19.62 12.183 L 19.62 12.183 C 18.973 13.082 19.228 14.324 20.189 14.953 L 20.189 14.953 C 21.15 15.583 22.347 15.388 22.861 14.518 L 22.861 14.518 L 28.812 6.227 L 28.949 6.31 L 37.591 11.479 L 27.739 29.252 L 17.665 23.223 L 17.665 23.223 Z  M 9 43 L 39 43 C 40.104 43 41 43.896 41 45 L 41 45 C 41 46.104 40.104 47 39 47 L 9 47 C 7.896 47 7 46.104 7 45 L 7 45 C 7 43.896 7.896 43 9 43 Z " fill-rule="evenodd" fill="url(#_lgradient_0)"/></svg>
